X: 6
T: Lochnagar
T: Air, D
L: 1/16
M: 2/2
K: D
A3F1| D4D3G1 F1A3 A3B1| d4f3e1 e1d3 d3B1| A3B1 d3B1 A1F3 F3D1| E3D1 E3F1 E4E2A1F1|
 D4D3G1 F1A3 A3B1| d4f3e1 e1d3 d3B1| A3B1 d3B1 A1F3 F3D1| E3D1 E1F3 D4 ||
A4| d4f3e1 e1d3 d3A1| B4d3B1 A1F3 F3G1| A1F3 E3D1 D1d3 d3B1| A1F3 F3D1 E4f3g1| 
a3g1 f1e1d1c1 e1d3 d3A1| B2g1f1 e1d1c1B1 A4F3G1| A4B3A1 A1B1d2 a3g1| f4e3d1 d4||
